X:451
T: "Des alten Dessauer Lied"
N: Z1131
O: Europa, Mitteleuropa, Deutschland
R: Vaterland und Wehr, Soldaten -, Kriegs - Lied
M: 4/4
L: 1/16
K: Bb
F4 | B3FD3FB3FD3F | B3AB3cd6
B2 | d3cd3ef4e3d | c8c4
F4 | B3FD3FB3FD3F | B3AB3cd6
B2 | d3cd3ef4e3d | c8c6
c2 | c3dc3BA3GF3G | A3Bc3de4
c4 | d3cd3ef4g2e2 | d4c4B4

@@@ Tune index: 10209
